X: 23006
T: Last House In The Village
R: reel
M: 4/4
K: Dmajor
"Gmaj7"B2AF EFDE|FAAF ~A2FA|BFAF EFDE|1 FAdc B3A:|2 FAdc B3c||
"Bm7"dBAF ABde|~f2ef dB~B2|"Bm7/A"dBAF ABde|~f2ef d3c|
"Gmaj7"dBAF ABde|~f2ef dB~B2|"(Em)"dBAF ABde|"G"faba "A"fe~e2||

